src/main/resources/icons/JbpmIcons/icons/bpmn/tasks/ScriptTask.svg

<svg xmlns="http://www.w3.org/2000/svg" width="16" height="16" viewBox="0 0 16 16"><rect id="frame" width="16" height="16" fill="none"/><g fill="none" fill-rule="evenodd"><path fill="#40B6E0" fill-opacity=".7" d="M14 8H9v6H2V2h12v6z"/><path fill="#9AA7B0" d="M11 15h4v-5h-4v5zm-1 1h6V9h-6v7z"/><path fill="#9AA7B0" d="M12 12h2v-1h-2z"/><path fill="#9AA7B0" d="M12 14h2v-1h-2z"/></g></svg>

<svg xmlns="http://www.w3.org/2000/svg" width="16" height="16" viewBox="0 0 16 16">
  <g fill="none" fill-rule="evenodd">
    <path fill="#40B6E0" fill-opacity=".7" d="M14,8 L9,8 L9,14 L2,14 L2,2 L14,2 L14,8 Z"/>
    <path fill="#9AA7B0" d="M11,15 L15,15 L15,10 L11,10 L11,15 Z M10,16 L16,16 L16,9 L10,9 L10,16 Z"/>
    <polygon fill="#9AA7B0" points="12 12 14 12 14 11 12 11"/>
    <polygon fill="#9AA7B0" points="12 14 14 14 14 13 12 13"/>
  </g>
</svg>
